src/assets/icons/letters,simple,sans-e.svg

<svg width="48" height="48" viewBox="0 0 48 48" fill="none" xmlns="http://www.w3.org/2000/svg">
<rect opacity="0.2" x="5" y="5" width="38" height="38" rx="4" fill="black"/>
<path d="M16.4688 36H31.7046V32.07H21.2355V26.6868H30.879V22.7567H21.2355V17.3846H31.6606V13.4545H16.4688V36Z" fill="black"/>
</svg>

<svg xmlns="http://www.w3.org/2000/svg" width="48" height="48" fill="none" viewBox="0 0 48 48">
  <rect width="38" height="38" x="5" y="5" fill="#000" opacity=".2" rx="4"/>
  <path fill="#000" d="M16.469 36h15.236v-3.93h-10.47v-5.383h9.644v-3.93h-9.644v-5.372h10.426v-3.93H16.469V36z"/>
</svg>
